X:60
%%topspace -50
T:Lakes of Sligo
M:2/4
L:1/8
K:D
"D"FA AB/2c/2 | de d3/2c/2 | "G"BA Bc/2d/2 | "A"e3/2d/2 ef | \
"D"FA AB/2c/2 | "Bm"de f3/2e/2 | "G"dB "D"Af | "A"e2 "D"d2 :|]
|: "D"fa d3/e/ | fa ag/f/ | "Em"gb e3/f/ | "G"gb ba/g/ | \
"D"fa "A"ef/e/ | "Bm"de f3/e/ |"G"dB "D"Af | "A"e2 "D"d2 :|]

